img/icon-barf/fruit.svg

<svg width="20" height="18" viewBox="0 0 20 18" fill="none" xmlns="http://www.w3.org/2000/svg">
<path d="M19.4007 9.82609C19.2222 9.45342 19.0054 9.0559 18.7631 8.65838C18.1128 7.59006 17.6155 6.59627 17.2203 5.61491C17.182 5.51553 17.131 5.41615 17.0927 5.31677C17.0162 5.1677 16.8377 5.11801 16.6975 5.18012C16.5444 5.25466 16.4934 5.42857 16.5572 5.56522C16.5955 5.65217 16.6337 5.72671 16.672 5.81366C17.0672 6.8323 17.59 7.85093 18.2531 8.9441C18.4954 9.32919 18.6994 9.71429 18.8652 10.0621C19.2349 10.8199 19.4134 11.4534 19.4134 11.9379C19.4134 14.9441 16.7995 17.4037 13.5862 17.4037C12.5789 17.4037 11.597 17.1553 10.7172 16.6957C11.2272 16.2609 11.6735 15.764 12.0561 15.205C12.7191 14.2112 13.1527 13.0559 13.3057 11.8385C13.5352 9.91304 13.0379 8.16149 12.0178 7.36646C11.3802 6.86957 10.7299 6.73292 10.1051 6.78261C10.2454 6.45963 10.3857 6.13665 10.5132 5.81366C10.7427 5.22981 11.1507 4.73292 11.6863 4.37267C12.2473 4 12.8976 3.80124 13.5862 3.80124C13.6754 3.80124 13.752 3.80124 13.8285 3.81366C14.619 3.86335 15.3586 4.18634 15.9196 4.7205C16.0344 4.8323 16.2257 4.8323 16.3404 4.7205C16.4552 4.6087 16.4552 4.42236 16.3404 4.31056C15.6901 3.68944 14.823 3.31677 13.905 3.25466C13.9687 2.45963 14.3385 1.60248 15.2183 1.29193C15.3713 1.24224 15.4479 1.06832 15.3968 0.919255C15.3458 0.770186 15.1673 0.695652 15.0143 0.745342C13.8667 1.15528 13.3822 2.26087 13.3184 3.25466C12.5916 3.29193 11.9285 3.51553 11.3547 3.90062C10.7172 4.32298 10.2326 4.91925 9.95212 5.61491C9.78636 6.03727 9.58234 6.48447 9.36557 6.93168C8.75352 7.09317 8.19247 7.40373 7.72068 7.65217C7.44015 7.80124 7.17238 7.95031 6.95561 8.02485C6.91736 7.54037 6.78984 7.04348 6.61133 6.58385C8.03945 6.44721 9.36557 5.70186 10.1944 4.54658C11.1125 3.29193 11.3547 1.6646 10.8575 0.198758C10.8192 0.0745342 10.7044 0 10.5769 0C8.99579 0.0372671 7.50391 0.807453 6.58583 2.06211C5.93552 2.96894 5.61674 4.06211 5.6805 5.14286C5.39997 4.86957 5.09395 4.68323 4.78792 4.6087C4.62215 4.55901 4.46914 4.65838 4.41814 4.80745C4.37988 4.95652 4.46914 5.11801 4.63491 5.1677C5.51473 5.40373 6.2288 6.81988 6.35631 8.01242C6.2543 7.97515 6.12679 7.91304 5.96102 7.82609C5.85901 7.7764 5.74425 7.71429 5.62949 7.65217C4.94093 7.2795 4.09936 6.8323 3.19403 6.78261C2.51822 6.74534 1.89342 6.9441 1.34512 7.37888C0.592802 7.95031 0.108259 9.06832 0.0190014 10.4224C-0.134012 12.5342 0.643806 14.6957 2.11018 16.2112C2.22494 16.323 2.41621 16.3354 2.53097 16.2236C2.64573 16.1118 2.65848 15.9255 2.54372 15.8137C1.1921 14.4099 0.46529 12.4099 0.605553 10.472C0.694811 9.2795 1.10285 8.29814 1.7149 7.82609C2.16119 7.49068 2.63298 7.32919 3.16853 7.36646C3.93359 7.40373 4.68591 7.80124 5.34897 8.16149C5.47648 8.2236 5.59124 8.28571 5.706 8.34783C5.89727 8.4472 6.05028 8.52174 6.19054 8.57143C6.36906 8.63354 6.53482 8.67081 6.67508 8.67081C7.04487 8.67081 7.4784 8.4472 8.01395 8.14907C9.07229 7.59006 10.3984 6.86957 11.6353 7.82609C12.4896 8.48447 12.9104 10.0621 12.7064 11.7764C12.5661 12.8944 12.1708 13.9752 11.5588 14.8944C10.8447 15.9627 9.86286 16.7702 8.63876 17.3292C8.37098 17.4534 8.07771 17.3913 7.72068 17.1553C7.4274 16.9565 7.09587 16.8571 6.75159 16.8323C6.73884 16.8323 6.72609 16.8323 6.71334 16.8323C6.3308 16.8199 5.94827 16.9317 5.62949 17.1553C5.27246 17.3913 4.97919 17.441 4.71141 17.3292C4.23962 17.118 3.79333 16.8571 3.3853 16.559C3.25779 16.4596 3.06652 16.4845 2.96451 16.6211C2.8625 16.7453 2.888 16.9317 3.02826 17.0311C3.4618 17.354 3.94635 17.6398 4.45639 17.8634C4.63491 17.9503 4.81342 17.9752 4.99194 17.9752C5.37447 17.9752 5.71875 17.8137 5.96102 17.6398C6.17779 17.4907 6.43281 17.4161 6.70059 17.4286C6.71334 17.4286 6.72609 17.4286 6.73884 17.4286C6.96836 17.441 7.19788 17.5155 7.38915 17.6398C7.75893 17.8882 8.30723 18.1242 8.89378 17.8634C9.36557 17.6522 9.81186 17.3913 10.2199 17.1056C11.2272 17.6894 12.3876 18 13.5862 18C17.131 18 20 15.2919 20 11.9627C20 11.3789 19.796 10.6584 19.4007 9.82609ZM6.81535 5.97516L8.53675 3.60248L9.97762 3.78882C9.90112 3.92547 9.81186 4.07453 9.70985 4.21118C9.03404 5.15528 7.9757 5.78882 6.81535 5.97516ZM9.03404 1.91304L8.63876 1.06832C9.04679 0.857143 9.49308 0.708075 9.96487 0.63354L9.03404 1.91304ZM10.4494 0.968944C10.5897 1.72671 10.5132 2.50932 10.2454 3.22981L8.93203 3.06832L10.4494 0.968944ZM8.12871 1.37888L8.65151 2.47205L8.16696 3.11801L7.77168 3.65217L7.17238 2.26087C7.44015 1.92547 7.75893 1.61491 8.12871 1.37888ZM6.77709 2.85714L7.36364 4.21118L6.3308 5.63975C6.16504 4.69565 6.31805 3.70186 6.77709 2.85714Z" fill="#961914"/>
</svg>

<svg width="20" height="18" fill="none" xmlns="http://www.w3.org/2000/svg"><path d="M19.4 9.826a13.38 13.38 0 00-.637-1.168 20.618 20.618 0 01-1.543-3.043c-.038-.1-.089-.199-.127-.298a.306.306 0 00-.395-.137.29.29 0 00-.14.385c.038.087.076.162.114.249.395 1.018.918 2.037 1.581 3.13.242.385.446.77.612 1.118.37.758.548 1.391.548 1.876 0 3.006-2.614 5.466-5.827 5.466a6.195 6.195 0 01-2.869-.708c.51-.435.957-.932 1.34-1.491a7.836 7.836 0 001.249-3.367c.23-1.925-.268-3.677-1.288-4.472-.638-.496-1.288-.633-1.913-.583.14-.323.28-.646.408-.97.23-.583.638-1.08 1.173-1.44a3.407 3.407 0 011.9-.572c.09 0 .166 0 .242.013.791.05 1.53.372 2.092.907a.306.306 0 00.42 0 .287.287 0 000-.41 3.908 3.908 0 00-2.435-1.056c.064-.795.434-1.653 1.313-1.963a.293.293 0 00.179-.373c-.051-.149-.23-.223-.383-.174-1.147.41-1.632 1.516-1.696 2.51-.726.037-1.39.26-1.963.646a3.723 3.723 0 00-1.403 1.714c-.166.422-.37.87-.586 1.317-.612.161-1.174.472-1.645.72-.28.15-.549.298-.765.373a5.172 5.172 0 00-.345-1.441c1.428-.137 2.755-.882 3.583-2.037a4.774 4.774 0 00.663-4.348.286.286 0 00-.28-.199C8.996.037 7.504.807 6.586 2.062c-.65.907-.97 2-.905 3.08-.281-.272-.587-.459-.893-.533a.3.3 0 00-.37.198.302.302 0 00.217.36c.88.237 1.594 1.653 1.721 2.845a3.395 3.395 0 01-.395-.186 9.18 9.18 0 01-.332-.174c-.688-.373-1.53-.82-2.435-.87a2.667 2.667 0 00-1.849.597C.593 7.95.108 9.069.02 10.422c-.153 2.112.625 4.274 2.091 5.79.115.111.306.123.421.012.115-.112.127-.299.013-.41C1.192 14.41.465 12.41.606 10.472c.089-1.192.497-2.174 1.109-2.646.446-.335.918-.497 1.454-.46.765.038 1.517.435 2.18.795.127.063.242.125.357.187.191.1.344.174.485.223.178.063.344.1.484.1.37 0 .803-.224 1.339-.522 1.058-.559 2.384-1.28 3.621-.323.855.658 1.275 2.236 1.071 3.95a7.292 7.292 0 01-1.147 3.118c-.714 1.069-1.696 1.876-2.92 2.435-.268.124-.561.062-.918-.174a1.953 1.953 0 00-.97-.323h-.038a1.79 1.79 0 00-1.084.323c-.357.236-.65.286-.918.174a7.335 7.335 0 01-1.326-.77.299.299 0 00-.42.062.281.281 0 00.063.41 7.35 7.35 0 001.428.832c.179.087.357.112.536.112.382 0 .727-.161.969-.335.217-.15.472-.224.74-.211h.038c.23.012.459.087.65.21.37.25.918.485 1.505.224a8.091 8.091 0 001.326-.757 6.708 6.708 0 003.366.894C17.131 18 20 15.292 20 11.963c0-.584-.204-1.305-.6-2.137zM6.816 5.976l1.722-2.374 1.44.187a3.872 3.872 0 01-.267.422c-.676.944-1.734 1.578-2.895 1.764zm2.219-4.063l-.395-.845c.408-.21.854-.36 1.326-.434l-.931 1.279zM10.45.969c.14.758.064 1.54-.204 2.26l-1.313-.16 1.517-2.1zm-2.32.41l.523 1.093-.485.646-.395.534-.6-1.391c.268-.336.587-.646.957-.882zM6.777 2.857l.587 1.354L6.33 5.64a4.303 4.303 0 01.446-2.783z" fill="#961914"/></svg>
